!!!!SEGMENT: pl-wtm--r-244-m_moniuszko-stanislaw--troje-chlopcow.krn
!!!cenid: 18xx:1650
!!!COM: Moniuszko, Stanisław
!!!COM-rismid: pe30008351
!!!CDT: 1819/05/05-1872/06/04
!!!CNT: Polish
!!!OTL: Troje chłopców
!!!PDT:
!!!AGN: Secular
!!!SMS-siglum: PL-Wtm
!!!SMS-shelfmark: R 244/M
!!!SMS-shelfwork: W
!!!SMS-variant:
!!!SMS-altvar:
!!!NIFC-rismid: 1001063780
!!!URL-scan: http://repozytorium.nifc.pl/skany/pl-wtm-nut--r229m
!!!ONB-nifc:
!!!key:
**kern	**kern	**dynam	**kern	**text	**dynam
*part2	*part2	*part2	*part1	*part1	*part1
*staff3	*staff2	*	*staff1	*staff1	*
*Iempty	*Iempty	*	*Iempty	*	*
*I"	*I"	*	*I"	*	*
*clefF4	*clefG2	*	*clefG2	*	*
*k[b-]	*k[b-]	*	*k[b-]	*	*
*F:	*F:	*	*F:	*	*
*M2/4	*M2/4	*	*M2/4	*	*
=1	=1	=1	=1	=1	=1
!	!	!	!LO:TX:a:i:t=Allegretto.	!	!
!	!	!	!LO:TX:a:i:t=N=o 25. Troje chłopcow. Wincentego Pohla.	!	!
8F\	8r	.	2r	.	.
8r	8f 8c 8A/	.	.	.	.
8F\	8r	.	.	.	.
8r	8f 8c 8A/	.	.	.	.
=2	=2	=2	=2	=2	=2
8F\	8r	.	2r	.	.
8r	8f 8c 8A/	.	.	.	.
8F\	8r	.	.	.	.
8r	8f 8c 8A/	.	.	.	.
=3	=3	=3	=3	=3	=3
8FF/	8r	.	8.c/	Trzech	.
8r	8a 8f 8c 8A/	.	.	.	.
.	.	.	16e/	dziś	.
8F\	8r	.	8f/	u	.
8r	8a 8f 8c 8A/	.	8g/	mnie	.
=4	=4	=4	=4	=4	=4
.	(16qqa/LL	.	.	.	.
.	16qqb-/JJ	.	.	.	.
8FF/	8a/L)	.	8.a/	chłop-	.
8r	8aJ 8f 8c 8A/	.	.	.	.
.	.	.	16g#X/	-ców	.
8F\	8r	.	8a/	by-	.
8r	8a: 8f: 8c: 8A:/	.	8dd\	-ło,	.
=5	=5	=5	=5	=5	=5
8F\L	8r	.	8cc\	każ-	.
!LO:TX:a:i:t=legier.	!LO:TUP:numer:problem	!	!	!	!
8cJ 8A\	(24gLL 24e/	.	8g/	-dy	.
.	24a 24f/	.	.	.	.
.	24gJJ 24e/	.	.	.	.
8F\L	8fL 8d/)	.	8f/	przy-	.
8cJ 8A\	8gJ 8e/|	.	8g/	-niosł	.
!!LO:LB:g=original
=6	=6	=6	=6	=6	=6
!LO:TX:t=P:problem=mixed beam	!	!	!	!	!
8FF/L	8a 8f/	.	8a/	da-	.
8F\J	4f 4c 4A/	.	4f/	-ry:	.
4FF/	.	.	.	.	.
.	8f 8c 8A/	.	8r	.	.
=7	=7	=7	=7	=7	=7
8BB-/	8r	.	8.e/	pier-	.
8r	8d 8B-/	.	.	.	.
.	.	.	16g/	-wszy	.
8BB-/	8r	.	8f/	Mi-	.
8r	8d 8B-/	.	8d/	-ły,	.
=8	=8	=8	=8	=8	=8
8C/	8r	.	8c/	mó-	.
*	*	*	*Xtuplet	*	*
8r	8f 8c 8A/	.	24c/LL	-wił	.
.	.	.	24d/	.	.
.	.	.	24c/JJ	.	.
8C/	8r	.	8Bn/	mi-	.
8r	8f 8c 8A/	.	8c/	-ło,	.
=9	=9	=9	=9	=9	=9
8C/	8r	.	8b-\	i	.
8r	8b- 8g 8d 8B-/	.	8b-\	dał	.
8C/	8r	.	8a\	wstąg	.
8r	8g 8e 8c 8B-/	.	8g\	trzy	.
=10	=10	=10	=10	=10	=10
8FF/	8r	.	8cc\	mia-	.
8r	8a 8f 8c 8A/	.	4f/	-ry.	.
8F\	8r	.	.	.	.
8r	8f 8c 8A/	.	8r	.	.
!!LO:PB:g=original
=11	=11	=11	=11	=11	=11
(4AA/	8r	.	8.e/	pier-	.
.	(8gL 8e 8c#X/	.	.	.	.
.	.	.	16g/	-wszy	.
8BB-X/L	8f 8d/	.	8.f/	mi-	.
8BBn/J)	8ddJ 8a-X 8f/)	.	.	.	.
.	.	.	16d/	-ły,	.
=12	=12	=12	=12	=12	=12
!LO:TX:t=P:problem=mixed beam	!	!	!	!	!
8C/L	(8dd/L	.	8c/	mó-	.
*	*	*	*tuplet	*	*
8c\J	8ccJ 8a 8f/)	.	24c/LL	-wił	.
.	.	.	24d/	.	.
.	.	.	24c/JJ	.	.
!LO:TX:t=P:problem=mixed beam	!	!	!	!	!
8C/L	8r	.	8Bn/	mi-	.
8c\J	8a 8f/	.	8c/	-ło,	.
=13	=13	=13	=13	=13	=13
8C/	8r	.	8b-\	i	.
8r	8b- 8g 8d 8B-/	.	8b-\	dał	.
8C/	8r	.	8a/	wstąg	.
8r	8g 8e 8c 8B-/	.	8g/	trzy	.
=14	=14	=14	=14	=14	=14
8F\	8r	.	8a/	mia-	.
8r	4f 4c 4A/	.	8f/	-ry.	.
8F\	.	.	4r	.	.
8r	8f 8c 8A/	.	.	.	.
=15	=15	=15	=15	=15	=15
*^	*	*	*	*	*
4FF/	4FF\	8a-X:L 8f: 8c: 8A-X:/	.	8a-X/	Dru-	.
.	.	8a- 8f 8c/	.	8a-/	-gi	.
8GG/L	4GG\	8.g 8.e-/	.	8.g/	szpet-	.
8B-J 8E-X/	.	.	.	.	.	.
.	.	16fJk 16d-X/	.	16f/	-ny,	.
*v	*v	*	*	*	*	*
=16	=16	=16	=16	=16	=16
*	*^	*	*	*	*
!LO:TX:t=P:problem=mixed beam	!	!	!	!	!	!
8AA-X/L	8f 8d-X/	8ryy	.	8f/	lecz	.
*	*Xtuplet	*	*	*	*	*
8A-X\J	24e-X/LL	8c\	.	8e-X/	po-	.
.	24f/	.	.	.	.	.
.	24e-/JJ	.	.	.	.	.
!LO:TX:t=P:problem=mixed beam	!	!	!	!	!	!
8AA-/L	8dnL 8Bn/	4ryy	.	8d/	-ku-	.
8A-\J	8e-J 8c/	.	.	8e-/	-sa,	.
*	*v	*v	*	*	*	*
!!LO:LB:g=original
=17	=17	=17	=17	=17	=17
4E-X\	8r	.	8dd-X\	dał	.
.	8b- 8g 8e-X 8d-X/	.	8dd-\	mi	.
4E-\	8r	.	8cc\	śré-	.
.	8b- 8g 8e- 8d-/	.	8b-\	-bra	.
=18	=18	=18	=18	=18	=18
8A-X\	8r	.	8cc\	dzba-	.
8r	4a-X 4e-X 4c/	.	4a-X\	-nek,	.
(4AA-X/	.	.	.	.	.
!	!LO:S:s=1:note:problem=note-level slur	!	!	!	!
.	(8a- 8e- 8c/	.	8r	.	.
=19	=19	=19	=19	=19	=19
4BB-/	8g/L)	.	8g/	ach!	.
.	8gJ 8d-X 8B-/	.	16r	.	.
.	.	.	16b-/	a	.
4BBn/	8r	.	8a-X/	trze-	.
.	8f 8dn 8A-/	.	8f/	-ci	.
=20	=20	=20	=20	=20	=20
8C/)	8r	.	8c/	dał	.
*	*	*	*Xtuplet	*	*
8r	8fL 8c 8A/	.	24c/LL	ca-	.
.	.	.	24d/	.	.
.	.	.	24c/JJ	.	.
8C/	8f 8d 8Bn 8G#X/	.	8Bn/	-łu-	.
8r	8fJ 8c 8A/	.	8c/	-sa	.
=21	=21	=21	=21	=21	=21
8C/	8r	.	8b-\	i	.
8r	8b- 8g 8e 8c/	.	8b-\	ró-	.
8C/	8r	.	8a\	-żo-	.
8r	8g 8e 8c/	.	8g\	-wy	.
=22	=22	=22	=22	=22	=22
(4F\	8r	.	8dd\	wia-	.
.	8a 8f 8c/	.	4.cc\	-nek.	.
4E\	8r	.	.	.	.
.	8cc 8g 8c/	.	.	.	.
!!LO:LB:g=original
=23	=23	=23	=23	=23	=23
4D\	8r	.	8.bn\	piérw-	.
!	!LO:TX:t=P:problem=zamazane wysokości dźwięku	!	!	!	!
.	8ryy	.	.	.	.
.	.	.	16dd\	-szy	.
4C\)	8r	.	8cc\	dał	.
.	8b-X 8g 8e/	.	8g/	mi	.
=24	=24	=24	=24	=24	=24
*^	*	*	*	*	*
*	*2\right	*	*	*	*	*
!LO:N:vis=2	!	!	!	!	!	!
8FF/L	2FF\	8r	.	8cc\	wstąg	.
8C|</	.	8aL 8c 8A/	.	16a/LL	trzy	.
.	.	.	.	16g/JJ	.	.
8F|</	.	8c 8A/	.	8f/	mia-	.
8C|</J	.	8fJ 8c 8A/	.	8g/	-ry,	.
=25	=25	=25	=25	=25	=25	=25
!LO:N:vis=2	!	!	!	!	!	!
8FF/L	2FF\	8r	.	8.f/	dru-	.
8C/	.	8cL 8B-/	.	.	.	.
.	.	.	.	16e/	-gi	.
8G/	.	8d 8B-/	.	8d/	śre-	.
!	!	!LO:S:s=2:note:problem=note-level slur	!	!	!	!
8C/J	.	(8gJ (8e 8c 8B-/	.	8e/	-bra	.
=26	=26	=26	=26	=26	=26	=26
!LO:N:vis=2	!	!	!	!	!	!
8FF/L	2FF\	8a) 8f/)	.	8f/	dzba-	.
!LO:TX:t=ra-lentando.:dur=6e:ext=ud:problem=tekst with extention lines	!	!	!	!	!	!
8C/	.	8ccL 8a 8f^^/|	.	4.cc\	-nek,	.
8A/	.	8f 8c/|	.	.	.	.
8C/J	.	8fJ 8c 8A/	.	.	.	.
=27	=27	=27	=27	=27	=27	=27
.	.	(16qqf/LL	.	.	.	.
.	.	16qqg/JJ	.	.	.	.
!LO:N:vis=2	!	!	!	!	!	!
8FF/L	2FF\	8f/L)	.	8.f/	trze-	.
8C/	.	8e 8c 8B-/	.	.	.	.
.	.	.	.	16e/	-ci	.
8G/	.	8d 8B-/	.	8d/	dał	.
8C/J	.	8eJ 8c 8B-/	.	8e/	ca-	.
*v	*v	*	*	*	*	*
=28	=28	=28	=28	=28	=28
8FF/	16f/LL	.	8f/	-łu-	.
.	16a/JJ	.	.	.	.
!LO:TX:t=P:problem=mixed beam	!	!	!	!	!
8A\L	4cc 4f 4c/	.	4cc\	-sa	.
8AA/J	.	.	.	.	.
8A\	8cc#X [8g 8e/	<	8cc#X\	i	.
=29	=29	=29	=29	=29	=29
!	!	!	!LO:TX:a:i:t=lento.	!	!
8B-\	8dd 8g] 8d/	[	8.dd\	dał	.
8r	8r	.	.	.	.
.	.	.	16g/	ró-	.
!	!LO:TX:t=P:problem=nuta g skreślona	!LO:DY:t=sf.	!	!	!
[>4C (<4CC\	4g (>4e 4B- 4G</	sf	8.b-/	-żo-	.
.	.	>	16e/	-wy	.
=30	=30	=30	=30	=30	=30
!	!	!	!LO:TX:a:i:t=a tempo 1mo.	!	!
8C] 8FF/)	8fL) 8c 8A/	.	8g/	wia-	.
8F 8C/	8fJ 8c 8A'/	]	4f/	-nek.	.
!LO:TX:t=P:problem=mixed beam	!	!	!	!	!
8FF/L	8r	.	.	.	.
8FJ 8C\	8f 8c 8A'/	.	8r	.	.
=31	=31	=31	=31	=31	=31
!LO:TX:t=P:problem=mixed beam	!	!	!	!	!
8FF/L	8r	.	2r	.	.
8FJ 8C\	8f 8c 8A'/	.	.	.	.
!LO:TX:t=P:problem=mixed beam	!	!	!	!	!
8FF/L	8r	.	.	.	.
8FJ 8C\	8f 8c 8A'/	.	.	.	.
=32	=32	=32	=32	=32	=32
*rep	*rep	*	*	*	*
!LO:TX:a:t=cres-cen-do:problem=dynamics with extention lines	!	!LO:HP:t=cres-cen-do:ext2=cd	!	!	!
!LO:TX:t=P:problem=mixed beam	!	!	!	!	!LO:DY:a
8FF/L	8r	<	8.c/	Ten	.
8FJ 8C\	8f 8c 8A/	.	.	.	<
.	.	.	16e/	naj-	.
!LO:TX:t=P:problem=mixed beam	!	!	!	!	!
8FF/L	8r	.	8f/	-piér-	.
8FJ 8C\	8f 8c 8A/	.	8g/	-wszy	.
*Xrep	*Xrep	*	*	*	*
=33	=33	=33	=33	=33	=33
*rep	*rep	*	*	*	*
!LO:TX:t=P:problem=mixed beam	!	!	!	!	!
8FF/L	8r	.	8a\	mój	.
8FJ 8C\	8f 8c 8A/	.	8cc\	ko-	.
!LO:TX:t=P:problem=mixed beam	!	!	!	!	!
8FF/L	8r	.	8.ff\	-cha-	.
8FJ 8C\	8f 8c 8A/	.	.	.	[
.	.	[	16ee\	-nek	.
*Xrep	*Xrep	*	*	*	*
!!LO:PB:g=original
=34	=34	=34	=34	=34	=34
!LO:TX:t=P:problem=mixed beam	!	!	!	!	!
8FF/L	8r	.	8cc\	dob-	.
8FJ 8D\	8f 8d 8Bn 8G/	.	8dd\	-rym	.
!LO:TX:t=P:problem=mixed beam	!	!	!	!	!
8FF/L	8r	.	8g/	był-	.
8GJ 8C\	8g 8e 8c 8B-X/	.	8b-/	-by	.
=35	=35	=35	=35	=35	=35
!LO:TX:t=P:problem=mixed beam	!	!	!	!	!
8FF/L	8r	.	16a/LL	bra-	.
.	.	.	16g/JJ	.	.
8F\J	4f 4c 4A/	.	4f/	-tem,	.
!LO:TX:t=P:problem=mixed beam	!	!	!	!	!
8FF/L	.	.	.	.	.
8F\J	8f 8c 8A/	.	8r	.	.
=36	=36	=36	=36	=36	=36
8BB-/	8r	.	8e/	dru-	.
8r	8d 8B-/	.	8g/	-gi	.
8BB-/	8r	.	8.f/	co	.
8r	8d 8B-/	.	.	.	.
.	.	.	16d/	dał	.
=37	=37	=37	=37	=37	=37
8C/	8r	.	8c/	śre-	.
8r	8f 8c 8A/	.	24c/LL	-bra	.
.	.	.	24d/	.	.
.	.	.	24c/JJ	.	.
8C/	8r	.	8Bn/	dzba-	.
8r	8f 8c 8A/	.	8c/	-nek,	.
=38	=38	=38	=38	=38	=38
8C/	8r	.	8.b-\	są-	.
8r	8b- 8g 8d 8B-/	.	.	.	.
.	.	.	16b-\	-sia-	.
8C/	8r	.	8a\	-dem	.
8r	8g 8e 8c 8B-/	.	8f\	lub	.
!!LO:LB:g=original
=39	=39	=39	=39	=39	=39
8FF/	8r	.	8cc\	swa-	.
8r	4a 4f 4c 4A/	.	4f/	-tem,	.
4F\	.	.	.	.	.
.	8f 8c 8A/	.	8r	.	.
=40	=40	=40	=40	=40	=40
(<4AA/	8r	.	8e/	dru-	.
.	(8gL 8e 8c#X/	.	8g/	-gi	.
8BB-X/L	8f 8d/)	.	8.f/	co	.
8BBn/J	8ddJ 8a-X 8f/|	.	.	.	.
.	.	.	16d/	dał	.
=41	=41	=41	=41	=41	=41
!LO:TX:t=P:problem=mixed beam	!	!	!	!	!
8C/L)	(8dd/L	.	8c/	sre-	.
!	!LO:S:s=1:note:problem=note-level slur	!	!	!	!
8c\J	8ccJ 8a 8f/)	.	24c/LL	-bra	.
.	.	.	24d/	.	.
.	.	.	24c/JJ	.	.
!LO:TX:t=P:problem=mixed beam	!	!	!	!	!
8C/L	8r	.	8Bn/	dzba-	.
8c\J	8a 8f/	.	8c/	-nek	.
=42	=42	=42	=42	=42	=42
8C/	8r	.	8b-\	są-	.
8r	8b- 8g 8d 8B-/	.	8b-\	-sia-	.
8C/	8r	.	8a\	-dem	.
8r	8g 8e 8c 8B-/	.	8g\	lub	.
=43	=43	=43	=43	=43	=43
8F\	8r	.	8a\	swa-	.
8r	4f 4c 4A/	.	4f/	-tem.	.
8F\	.	.	.	.	.
8r	8f 8c 8A/	.	8r	.	.
!!LO:LB:g=original
=44	=44	=44	=44	=44	=44
*^	*	*	*	*	*
!	!	!	!	!LO:TX:a:i:t=piu lento.	!	!
4FF/	4FF\	8a-X:L 8f: 8c: 8A-X:/	.	8a-X/	Ach!	.
.	.	8a-J 8f 8c/	.	16r	.	.
.	.	.	.	16a-/	a	.
8GG/L	4GG\	8.gL 8.e/	.	8.g/	te-	.
8B-XJ 8E-X/	.	.	.	.	.	.
.	.	16fJk 16d-X/	.	16f/	-mu	.
*v	*v	*	*	*	*	*
=45	=45	=45	=45	=45	=45
*	*^	*	*	*	*
!LO:TX:t=P:problem=mixed beam	!	!	!	!	!	!
8AA-X/L	8f 8d-X/	8ryy	.	8f/	co	.
8A-X\J	24e-X/LL	8c\	.	8e-X/	dał	.
.	24f/	.	.	.	.	.
.	24e-/JJ	.	.	.	.	.
!LO:TX:t=P:problem=mixed beam	!	!	!	!	!	!
8AA-/L	8dnL 8Bn/	4ryy	.	8d/	ró-	.
8A-\J	8e-J 8c/	.	.	8e-/	-że,	.
*	*v	*v	*	*	*	*
=46	=46	=46	=46	=46	=46
4E-X\	8r	.	8dd-X\	i	.
.	8b- 8g 8e-X 8d-X/	.	8dd-\	uś-	.
(4E-\	8r	.	8cc\	-cisk	.
.	8b- 8g 8e- 8d-/	.	8b-\	pas-	.
=47	=47	=47	=47	=47	=47
8A-X\)	8r	.	8cc\	-ter-	.
8r	4a-X 4e-X 4c/	.	4a-X\	-ce	.
(4AA-X/	.	.	.	.	.
!	!LO:S:s=1:note:problem=note-level slur	!	!	!	!
.	(8a- 8e- 8c/	.	8r	.	.
=48	=48	=48	=48	=48	=48
4BB-/	8g/L)	.	8g/	od-	.
.	8gJ 8d-X 8B-/	.	8b-/	-da-	.
4BBn/	8r	.	8.a-X/	-ła-	.
.	8f 8dn 8A-X/	.	.	.	.
.	.	.	16f/	-bym	.
!!LO:LB:g=original
=49	=49	=49	=49	=49	=49
!LO:TX:b:t=P:problem=brak zakończenia łuku	!	!	!	!	!
8C/)	8r	.	8c/	o-	.
8r	8fL 8c 8A/	.	24c/LL	-czy	.
.	.	.	24d/	.	.
.	.	.	24c/JJ	.	.
8C/	8f 8d 8Bn 8G#X/	.	8Bn/	du-	.
8r	8fJ 8c 8A/	.	8c/	-że	.
=50	=50	=50	=50	=50	=50
8C/	8r	.	8b-\	i	.
8r	8b- 8g 8e 8c/	.	8b-\	ucz-	.
8C/	8r	.	8a\	-ci-	.
8r	8g 8e 8c/	.	8g\	-we	.
=51	=51	=51	=51	=51	=51
(4A\	8r	.	8dd\	ser-	.
.	8cc 8f 8c/	.	4cc\	-ce	.
4G\	8r	.	.	.	.
.	8cc 8g 8e-X/	.	8cc\	ach!	.
=52	=52	=52	=52	=52	=52
4F\	8r	.	8.bn\	te-	.
.	8bn 8g 8d/	.	.	.	.
.	.	.	16dd\	-mu,	.
4E\)	8r	.	8.cc\	te-	.
.	8b-X 8g 8c/	.	.	.	.
.	.	.	16g/	-mu	.
=53	=53	=53	=53	=53	=53
.	(8qa/	.	.	.	.
*^	*^	*	*	*	*
8FL 8FF/	4FF\	(<8.ff/L)	8rc	.	8cc\	co	.
8AJ 8C/	.	.	8f\	.	16a/LL	dał	.
.	.	16ee/K	.	.	16g/JJ	.	.
8FF/L	4FF\	8cc/	8rc	.	8f/	ró-	.
*	*	*tuplet	*	*	*	*	*
8AJ 8C/	.	24dd/L)	8f\	.	16f/LL	-że	.
.	.	24ee/	.	.	.	.	.
!	!	!	!	!	!LO:TX:t=P:problem=brak dalszego ciągu utworu	!	!
.	.	.	.	.	16g/JJ	.	.
.	.	24dd/JJ	.	.	.	.	.
*v	*v	*	*	*	*	*	*
*	*v	*v	*	*	*	*
==	==	==	==	==	==
*-	*-	*-	*-	*-	*-
!!!system-decoration: {<s1>(s2,s3)}
!!!RDF**kern: > = above
!!!RDF**kern: < = below
!!!RDF**kern: | = vertical stroke
!!!AIN: 2 empty
!!!ENC: Marta Lawrence
!!!END: 2021-04-15
!!!ENC: Kamil Watkowski
!!!END: 2021-03-31
